final/oranges.svg

<?xml version="1.0" encoding="iso-8859-1"?>
<!-- Generator: Adobe Illustrator 10, SVG Export Plug-In . SVG Version: 3.0.0 Build 76)  -->
<!DOCTYPE svg PUBLIC "-//W3C//DTD SVG 1.0//EN"    "http://www.w3.org/TR/2001/REC-SVG-20010904/DTD/svg10.dtd" [
	<!ENTITY ns_flows "http://ns.adobe.com/Flows/1.0/">
	<!ENTITY ns_svg "http://www.w3.org/2000/svg">
	<!ENTITY ns_xlink "http://www.w3.org/1999/xlink">
]>
<svg  xmlns="&ns_svg;" xmlns:xlink="&ns_xlink;" xmlns:a="http://ns.adobe.com/AdobeSVGViewerExtensions/3.0/"
	 width="501.956" height="536.538" viewBox="0 0 501.956 536.538"
	 style="overflow:visible;enable-background:new 0 0 501.956 536.538" xml:space="preserve">
	<style type="text/css">
	<![CDATA[
		@font-face{font-family:'Times-Roman';src:url(C54E6F61.cef)}
	]]>
	</style>
	<g id="Layer_1">
		<text transform="matrix(1 0 0 1 0 473.5747)"><tspan x="0" y="0" style="font-family:'Times-Roman'; font-size:12;">&quot;Oranges&quot;</tspan><tspan x="0" y="14.5" style="font-family:'Times-Roman'; font-size:12;">Copyright </tspan><tspan x="51.668" y="14.5" style="font-family:'Times-Roman'; font-size:12;">&#xA9;</tspan><tspan x="60.785" y="14.5" style="font-family:'Times-Roman'; font-size:12;"> 2000 Rob Myers http://www.robmyers.org/ .</tspan><tspan x="0" y="29" style="font-family:'Times-Roman'; font-size:12;">This work is licensed under the Creative Commons Attribution-ShareAlike License.</tspan><tspan x="0" y="43.5" style="font-family:'Times-Roman'; font-size:12;">To view a copy of this license, visit http://creativecommons.org/licenses/by-sa/1.0/ </tspan><tspan x="0" y="58" style="font-family:'Times-Roman'; font-size:12;">or send a letter to Creative Commons, 559 Nathan Abbott Way, Stanford, California 94305, USA.</tspan></text>
		<g>
			<g>
				<path d="M253.448,206.179c0,0,95.04,48.888,71.856,155.232c-23.113,106.271-13.393,98.928-13.393,98.928l82.872-23.256
					c0,0,45.071-184.465,6.048-211.393c-38.952-26.856-74.305-55.008-74.305-55.008s39.024-86.76,84.097-47.664
					c45.071,39.096,45.071,39.096,45.071,39.096L492.2,66.787c0,0-99.864-66.024-133.992-36.648
					C324.08,59.443,282.68,93.715,247.4,104.659c-10.224,3.168-16.632,6.48-22.536,9.936v86.328
					C239.048,198.907,249.56,200.059,253.448,206.179z M224.864,456.811V331.675c15.984-16.344,30.312-24.336,37.151-11.881
					c0,0,36.504,35.496,35.28,62.353C296.359,403.099,252.008,440.179,224.864,456.811z M224.864,114.595
					c-10.656,6.12-19.656,12.816-45.72,20.304v78.048c16.92-5.76,32.832-10.224,45.72-12.024V114.595z M224.864,331.675v125.136
					c-7.776,4.752-14.184,7.848-17.712,8.424c-6.696,1.008-17.64-4.824-28.008-11.88v-63.072
					C192.752,370.195,209.6,347.155,224.864,331.675z M179.144,343.267c16.992-23.76,30.456-47.016,26.784-56.736
					c-2.808-8.279-13.824-12.527-26.784-14.544V343.267z M179.144,134.899c-9.792,2.88-22.104,5.832-37.728,8.928
					c-2.376,0.432-4.68,0.936-6.984,1.368v84.744c14.832-6.12,30.168-12.096,44.712-16.992V134.899z M179.144,271.987v71.28
					c-15.408,21.6-33.768,43.632-44.712,56.447V271.123C145.16,270.332,163.592,269.539,179.144,271.987z M179.144,390.283
					c-15.48,22.824-26.784,41.904-26.784,41.904s12.816,11.736,26.784,21.168V390.283z M134.432,145.195
					c-75.528,15.48-110.016,31.608-110.016,31.608l25.632,91.655c0,0,39.816-20.088,84.384-38.52V145.195z M134.432,271.123v128.592
					c-5.832,6.769-9.576,11.017-9.576,11.017s-87.696-35.063-54.864-48.168c32.904-13.896,55.584-90.647,55.584-90.647
					S128.96,271.483,134.432,271.123z"/>
				<path style="fill:none;stroke:#000000;stroke-width:15.984;" d="M253.448,206.179c0,0,95.04,48.888,71.856,155.232
					c-23.113,106.271-13.393,98.928-13.393,98.928l82.872-23.256c0,0,45.071-184.465,6.048-211.393
					c-38.952-26.856-74.305-55.008-74.305-55.008s39.024-86.76,84.097-47.664c45.071,39.096,45.071,39.096,45.071,39.096
					L492.2,66.787c0,0-99.864-66.024-133.992-36.648C324.08,59.443,282.68,93.715,247.4,104.659
					c-35.352,11.016-25.632,23.256-105.984,39.168c-80.424,15.84-117,32.976-117,32.976l25.632,91.655
					C50.048,268.458,233.936,175.579,253.448,206.179z M262.016,319.794c0,0,36.504,35.496,35.28,62.353
					s-74.304,80.64-90.144,83.088c-15.84,2.448-54.792-33.048-54.792-33.048S241.28,281.923,262.016,319.794z M125.576,271.916
					c0,0-22.68,76.752-55.584,90.647c-32.832,13.104,54.864,48.168,54.864,48.168s89.856-100.8,81.072-124.2
					C197.936,263.13,125.576,271.916,125.576,271.916z"/>
			</g>
			<g>
				<path style="fill:#FE5A17;" d="M239.84,191.491c0,0,95.04,48.887,71.855,155.232c-23.111,106.271-13.391,98.928-13.391,98.928
					l82.871-23.184c0,0,45.072-184.536,6.049-211.392c-38.953-26.928-74.305-55.008-74.305-55.008s39.023-86.76,84.096-47.664
					c45.072,39.096,45.072,39.096,45.072,39.096l36.504-95.328c0,0-99.863-66.024-133.992-36.648
					c-34.056,29.304-75.527,63.504-110.808,74.52c-10.224,3.168-16.632,6.48-22.536,9.864v86.328
					C225.512,184.219,235.952,185.371,239.84,191.491z M211.256,442.195V316.987c16.056-16.272,30.312-24.336,37.152-11.808
					c0,0,36.504,35.424,35.279,62.352C282.752,388.412,238.4,425.491,211.256,442.195z M211.256,99.907
					c-10.656,6.192-19.656,12.816-45.72,20.376v77.976c16.992-5.76,32.832-10.152,45.72-12.024V99.907z M211.256,316.987v125.208
					c-7.776,4.752-14.184,7.849-17.712,8.353c-6.696,1.08-17.64-4.752-28.008-11.809v-63.071
					C179.144,355.507,195.992,332.539,211.256,316.987z M165.536,328.58c16.992-23.761,30.456-46.944,26.784-56.664
					c-2.808-8.353-13.824-12.601-26.784-14.617V328.58z M165.536,120.283c-9.792,2.808-22.032,5.76-37.728,8.856
					c-2.376,0.504-4.68,0.936-6.984,1.44v84.672c14.832-6.12,30.168-12.024,44.712-16.992V120.283z M165.536,257.298v71.281
					c-15.408,21.672-33.768,43.703-44.712,56.52V256.435C131.552,255.643,149.984,254.851,165.536,257.298z M165.536,375.667
					c-15.48,22.824-26.784,41.903-26.784,41.903s12.888,11.664,26.784,21.168V375.667z M120.824,130.579
					c-75.528,15.48-110.016,31.608-110.016,31.608l25.632,91.656c0,0,39.816-20.088,84.384-38.592V130.579z M120.824,256.435
					v128.664c-5.832,6.84-9.576,11.016-9.576,11.016s-87.696-35.063-54.864-48.24c32.904-13.823,55.584-90.576,55.584-90.576
					S115.424,256.867,120.824,256.435z"/>
				<path style="fill:none;stroke:#FFD911;stroke-width:15.984;" d="M239.84,191.491c0,0,95.04,48.887,71.855,155.232
					c-23.111,106.271-13.391,98.928-13.391,98.928l82.871-23.184c0,0,45.072-184.536,6.049-211.392
					c-38.953-26.928-74.305-55.008-74.305-55.008s39.023-86.76,84.096-47.664c45.072,39.096,45.072,39.096,45.072,39.096
					l36.504-95.328c0,0-99.863-66.024-133.992-36.648c-34.056,29.304-75.527,63.504-110.808,74.52
					c-35.352,11.016-25.632,23.256-105.984,39.096c-80.424,15.912-117,33.048-117,33.048l25.632,91.656
					C36.44,253.843,220.4,160.963,239.84,191.491z M248.408,305.179c0,0,36.504,35.424,35.279,62.352
					c-1.224,26.856-74.304,80.568-90.144,83.017c-15.84,2.447-54.792-32.977-54.792-32.977S227.672,267.307,248.408,305.179z
					 M111.968,257.298c0,0-22.68,76.753-55.584,90.576c-32.832,13.177,54.864,48.24,54.864,48.24s89.856-100.8,81.072-124.199
					C184.328,248.515,111.968,257.298,111.968,257.298z"/>
			</g>
		</g>
	</g>
</svg>

<?xml version="1.0" encoding="UTF-8" standalone="no"?>
<!-- Generator: Adobe Illustrator 10, SVG Export Plug-In . SVG Version: 3.0.0 Build 76)  -->
<svg
   xmlns:dc="http://purl.org/dc/elements/1.1/"
   xmlns:cc="http://creativecommons.org/ns#"
   xmlns:rdf="http://www.w3.org/1999/02/22-rdf-syntax-ns#"
   xmlns:svg="http://www.w3.org/2000/svg"
   xmlns="http://www.w3.org/2000/svg"
   xmlns:sodipodi="http://sodipodi.sourceforge.net/DTD/sodipodi-0.dtd"
   xmlns:inkscape="http://www.inkscape.org/namespaces/inkscape"
   width="497.37698"
   height="473.3494"
   viewBox="0 0 501.956 536.538"
   style="overflow:visible"
   xml:space="preserve"
   id="svg2751"
   sodipodi:version="0.32"
   inkscape:version="0.46"
   sodipodi:docname="oranges.svg"
   inkscape:output_extension="org.inkscape.output.svg.inkscape"
   version="1.0"><metadata
   id="metadata2789"><rdf:RDF><cc:Work
       rdf:about=""><dc:format>image/svg+xml</dc:format><dc:type
         rdf:resource="http://purl.org/dc/dcmitype/StillImage" /></cc:Work></rdf:RDF></metadata><defs
   id="defs2787"><inkscape:perspective
   sodipodi:type="inkscape:persp3d"
   inkscape:vp_x="0 : 268.26901 : 1"
   inkscape:vp_y="0 : 1000 : 0"
   inkscape:vp_z="501.95599 : 268.26901 : 1"
   inkscape:persp3d-origin="250.978 : 178.84601 : 1"
   id="perspective2791" />
		
		
	</defs><sodipodi:namedview
   inkscape:window-height="670"
   inkscape:window-width="914"
   inkscape:pageshadow="2"
   inkscape:pageopacity="0.0"
   guidetolerance="10.0"
   gridtolerance="10.0"
   objecttolerance="10.0"
   borderopacity="1.0"
   bordercolor="#666666"
   pagecolor="#ffffff"
   id="base"
   showgrid="false"
   inkscape:zoom="0.86107597"
   inkscape:cx="250.978"
   inkscape:cy="268.26901"
   inkscape:window-x="0"
   inkscape:window-y="0"
   inkscape:current-layer="svg2751" />
	<style
   type="text/css"
   id="style2753">
	
		@font-face{font-family:'Times-Roman';src:url(C54E6F61.cef)}
	
	</style>
	
<g
   transform="matrix(1.1334925,0,0,1.1334925,-34.099327,1.5466536e-3)"
   style="overflow:visible"
   id="g2772">
			<g
   id="g2774">
				<path
   id="path2776"
   d="M 253.448,206.179 C 253.448,206.179 348.488,255.067 325.304,361.411 C 302.191,467.682 311.911,460.339 311.911,460.339 L 394.783,437.083 C 394.783,437.083 439.854,252.618 400.831,225.69 C 361.879,198.834 326.526,170.682 326.526,170.682 C 326.526,170.682 365.55,83.922 410.623,123.018 C 455.694,162.114 455.694,162.114 455.694,162.114 L 492.2,66.787 C 492.2,66.787 392.336,0.763 358.208,30.139 C 324.08,59.443 282.68,93.715 247.4,104.659 C 237.176,107.827 230.768,111.139 224.864,114.595 L 224.864,200.923 C 239.048,198.907 249.56,200.059 253.448,206.179 z M 224.864,456.811 L 224.864,331.675 C 240.848,315.331 255.176,307.339 262.015,319.794 C 262.015,319.794 298.519,355.29 297.295,382.147 C 296.359,403.099 252.008,440.179 224.864,456.811 z M 224.864,114.595 C 214.208,120.715 205.208,127.411 179.144,134.899 L 179.144,212.947 C 196.064,207.187 211.976,202.723 224.864,200.923 L 224.864,114.595 z M 224.864,331.675 L 224.864,456.811 C 217.088,461.563 210.68,464.659 207.152,465.235 C 200.456,466.243 189.512,460.411 179.144,453.355 L 179.144,390.283 C 192.752,370.195 209.6,347.155 224.864,331.675 z M 179.144,343.267 C 196.136,319.507 209.6,296.251 205.928,286.531 C 203.12,278.252 192.104,274.004 179.144,271.987 L 179.144,343.267 z M 179.144,134.899 C 169.352,137.779 157.04,140.731 141.416,143.827 C 139.04,144.259 136.736,144.763 134.432,145.195 L 134.432,229.939 C 149.264,223.819 164.6,217.843 179.144,212.947 L 179.144,134.899 L 179.144,134.899 z M 179.144,271.987 L 179.144,343.267 C 163.736,364.867 145.376,386.899 134.432,399.714 L 134.432,271.123 C 145.16,270.332 163.592,269.539 179.144,271.987 z M 179.144,390.283 C 163.664,413.107 152.36,432.187 152.36,432.187 C 152.36,432.187 165.176,443.923 179.144,453.355 L 179.144,390.283 z M 134.432,145.195 C 58.904,160.675 24.416,176.803 24.416,176.803 L 50.048,268.458 C 50.048,268.458 89.864,248.37 134.432,229.938 L 134.432,145.195 z M 134.432,271.123 L 134.432,399.715 C 128.6,406.484 124.856,410.732 124.856,410.732 C 124.856,410.732 37.16,375.669 69.992,362.564 C 102.896,348.668 125.576,271.917 125.576,271.917 C 125.576,271.917 128.96,271.483 134.432,271.123 z" />
				<path
   id="path2778"
   d="M 253.448,206.179 C 253.448,206.179 348.488,255.067 325.304,361.411 C 302.191,467.682 311.911,460.339 311.911,460.339 L 394.783,437.083 C 394.783,437.083 439.854,252.618 400.831,225.69 C 361.879,198.834 326.526,170.682 326.526,170.682 C 326.526,170.682 365.55,83.922 410.623,123.018 C 455.694,162.114 455.694,162.114 455.694,162.114 L 492.2,66.787 C 492.2,66.787 392.336,0.763 358.208,30.139 C 324.08,59.443 282.68,93.715 247.4,104.659 C 212.048,115.675 221.768,127.915 141.416,143.827 C 60.992,159.667 24.416,176.803 24.416,176.803 L 50.048,268.458 C 50.048,268.458 233.936,175.579 253.448,206.179 z M 262.016,319.794 C 262.016,319.794 298.52,355.29 297.296,382.147 C 296.072,409.004 222.992,462.787 207.152,465.235 C 191.312,467.683 152.36,432.187 152.36,432.187 C 152.36,432.187 241.28,281.923 262.016,319.794 z M 125.576,271.916 C 125.576,271.916 102.896,348.668 69.992,362.563 C 37.16,375.667 124.856,410.731 124.856,410.731 C 124.856,410.731 214.712,309.931 205.928,286.531 C 197.936,263.13 125.576,271.916 125.576,271.916 z"
   style="fill:none;stroke:#000000;stroke-width:15.98400021" />
			</g>
			<g
   id="g2780">
				<path
   id="path2782"
   d="M 239.84,191.491 C 239.84,191.491 334.88,240.378 311.695,346.723 C 288.584,452.994 298.304,445.651 298.304,445.651 L 381.175,422.467 C 381.175,422.467 426.247,237.931 387.224,211.075 C 348.271,184.147 312.919,156.067 312.919,156.067 C 312.919,156.067 351.942,69.307 397.015,108.403 C 442.087,147.499 442.087,147.499 442.087,147.499 L 478.591,52.171 C 478.591,52.171 378.728,-13.853 344.599,15.523 C 310.543,44.827 269.072,79.027 233.791,90.043 C 223.567,93.211 217.159,96.523 211.255,99.907 L 211.255,186.235 C 225.512,184.219 235.952,185.371 239.84,191.491 z M 211.256,442.195 L 211.256,316.987 C 227.312,300.715 241.568,292.651 248.408,305.179 C 248.408,305.179 284.912,340.603 283.687,367.531 C 282.752,388.412 238.4,425.491 211.256,442.195 z M 211.256,99.907 C 200.6,106.099 191.6,112.723 165.536,120.283 L 165.536,198.259 C 182.528,192.499 198.368,188.107 211.256,186.235 L 211.256,99.907 z M 211.256,316.987 L 211.256,442.195 C 203.48,446.947 197.072,450.044 193.544,450.548 C 186.848,451.628 175.904,445.796 165.536,438.739 L 165.536,375.668 C 179.144,355.507 195.992,332.539 211.256,316.987 z M 165.536,328.58 C 182.528,304.819 195.992,281.636 192.32,271.916 C 189.512,263.563 178.496,259.315 165.536,257.299 L 165.536,328.58 z M 165.536,120.283 C 155.744,123.091 143.504,126.043 127.808,129.139 C 125.432,129.643 123.128,130.075 120.824,130.579 L 120.824,215.251 C 135.656,209.131 150.992,203.227 165.536,198.259 L 165.536,120.283 z M 165.536,257.298 L 165.536,328.579 C 150.128,350.251 131.768,372.282 120.824,385.099 L 120.824,256.435 C 131.552,255.643 149.984,254.851 165.536,257.298 z M 165.536,375.667 C 150.056,398.491 138.752,417.57 138.752,417.57 C 138.752,417.57 151.64,429.234 165.536,438.738 L 165.536,375.667 z M 120.824,130.579 C 45.296,146.059 10.808,162.187 10.808,162.187 L 36.44,253.843 C 36.44,253.843 76.256,233.755 120.824,215.251 L 120.824,130.579 z M 120.824,256.435 L 120.824,385.099 C 114.992,391.939 111.248,396.115 111.248,396.115 C 111.248,396.115 23.552,361.052 56.384,347.875 C 89.288,334.052 111.968,257.299 111.968,257.299 C 111.968,257.299 115.424,256.867 120.824,256.435 z"
   style="fill:#fe5a17" />
				<path
   id="path2784"
   d="M 239.84,191.491 C 239.84,191.491 334.88,240.378 311.695,346.723 C 288.584,452.994 298.304,445.651 298.304,445.651 L 381.175,422.467 C 381.175,422.467 426.247,237.931 387.224,211.075 C 348.271,184.147 312.919,156.067 312.919,156.067 C 312.919,156.067 351.942,69.307 397.015,108.403 C 442.087,147.499 442.087,147.499 442.087,147.499 L 478.591,52.171 C 478.591,52.171 378.728,-13.853 344.599,15.523 C 310.543,44.827 269.072,79.027 233.791,90.043 C 198.439,101.059 208.159,113.299 127.807,129.139 C 47.383,145.051 10.807,162.187 10.807,162.187 L 36.439,253.843 C 36.44,253.843 220.4,160.963 239.84,191.491 z M 248.408,305.179 C 248.408,305.179 284.912,340.603 283.687,367.531 C 282.463,394.387 209.383,448.099 193.543,450.548 C 177.703,452.995 138.751,417.571 138.751,417.571 C 138.751,417.571 227.672,267.307 248.408,305.179 z M 111.968,257.298 C 111.968,257.298 89.288,334.051 56.384,347.874 C 23.552,361.051 111.248,396.114 111.248,396.114 C 111.248,396.114 201.104,295.314 192.32,271.915 C 184.328,248.515 111.968,257.298 111.968,257.298 z"
   style="fill:none;stroke:#ffd911;stroke-width:15.98400021" />
			</g>
		</g></svg>
